X: 1418
T: Miss McLeod's Reel
M:C|
L:1/8
B:O'Neill's 1418
Z:"Irish Version" "Transcribed by Bob Safranek, rjs@gsp.org"
K:G
BA | G2 BG DGBG | B2 BA BcBA  | G2 BG DGBG | A2 AG AcBA  |
     G2 BG DGBG | B2 BA B2 d2 | e3 f  edef | gedB  AcBA  ||
     G2 gf edeg | B2 BA BcBA  | G2 gf edeg | a2 ag ac'ba |
     g2 gf edeg | BcBA  B2 d2 | efed  cdef | gedB  A2    |]


